!!!!SEGMENT: pl-gd--ee-2628--005-003_stabile-annibale--il-primo-libro-de-madrigali-a-cinque-voci-tirsi-qui-cadde-liuia.krn
!!!cenid: 15xx:1048
!!!COM: Stabile, Annibale
!!!COM-rismID: pe30009662
!!!CDT: ~1535-1595/04
!!!CNT: Italian
!!!GTL: Il primo libro de madrigali a cinque voci
!!!OTL: Tirsi qui cadde Liuia
!!!OMV: 003
!!!PDT: 1586
!!!AGN:
!!!SMS-siglum: PL-GD
!!!SMS-shelfmark: Ee 2628
!!!SMS-variant:
!!!SMS-altvar:
!!!SMS-shelfwork: 005-003 G
!!!NIFC-rismSourceID: 990060531
!!!NIFC-islandoraID: pl-gd:66139
!!!URL-pdf-islandora: https://repozytorium.nifc.pl/islandora/object/pl-gd%3A66139/datastream/PDF/view
!!!URL-scan: https://polish.musicsources.pl/pl/lokalizacje/galeria/klocki-introligatorskie/673 @EN{Scan on Polish Music Sources Website} @PL{Skany w portalu Dziedzictwo Muzyki Polskiej w otwartym dostępie}
!!!ONB-nifc: UWAGA: Canto: s. 78-89, Tenore: s. 233-245, Basso: s. 390-401, Quinto: s. 712-723. Dla głosu Alto proszę skorzystać z https://pbc.gda.pl/dlibra/doccontent?id=79410, str. 25-48. Uwaga: utwory podzielone wg spisu treści dostępnych na końcu ksiąg – proszę sprawdzać sąsiednie tytuły. Głos Quinto proszę umieszczać wg ambitusu (może się różnić w zależności od utworu).
!!!AIN: 1 alto 1 bass 1 soprn 2 tenor
!!!key:
**kern	**text	**kern	**text	**kern	**text	**kern	**text	**kern	**text
*part5	*part5	*part4	*part4	*part3	*part3	*part2	*part2	*part1	*part1
*staff5	*staff5	*staff4	*staff4	*staff3	*staff3	*staff2	*staff2	*staff1	*staff1
*I"BASSO	*	*I"TENORE	*	*I"QVINTO	*	*I"ALTO	*	*I"CANTO	*
*I'B	*	*I'T	*	*I'V 5	*	*I'A	*	*I'C	*
*ICvox	*	*ICvox	*	*ICvox	*	*ICvox	*	*Cvox	*
*Ibass	*	*Itenor	*	*Itenor	*	*Ialto	*	*Isoprn	*
*clefF4	*	*clefC4	*	*clefC4	*	*clefC3	*	*clefC1	*
*k[b-]	*	*k[b-]	*	*k[b-]	*	*k[b-]	*	*k[b-]	*
*F:	*	*F:	*	*F:	*	*F:	*	*F:	*
*M2/1	*	*M2/1	*	*M2/1	*	*M2/1	*	*M2/1	*
*met(c)	*	*met(c)	*	*met(c)	*	*met(c)	*	*met(c|)	*
=1-	=1-	=1-	=1-	=1-	=1-	=1-	=1-	=1-	=1-
!LO:TX:b:i:t=TIrſi	!	!	!	!	!	!	!	!	!
1r	.	2r	.	2r	.	2r	.	1a	TIr-
.	.	2F#X/	TIr-	2D/	TIr-	2d\	TIr-	.	.
2r	.	2A/	-ſi	2D/	-ſi	2d\	-ſi	2f#X/	-ſi
2D/	Qui	4A/	qui	2F#X/	qui	2d\	qui	2a\	qui
.	.	2D/	cad-	.	.	.	.	.	.
=2-	=2-	=2-	=2-	=2-	=2-	=2-	=2-	=2-	=2-
4GG/	cad-	.	.	4G/	cad-	4d\	cad-	4b-\	cad-
4FF#X/	-de	4D/	-de	4A/	-de	4d\	-de	4a\	-de
2GG/	Li-	4D/	Li-	2B-\	Li-	2d\	Li-	2g/	Li-
.	.	4D/	-uia	.	.	.	.	.	.
4D/	-uia	4r	.	4A/	-uia	2d\	-uia	4fny/	-uia
2G\	qui	2d\	qui	2G/	qui	.	.	2b-\	qui
.	.	.	.	.	.	2r	.	.	.
4F\	vid-	4d\	vid-	4A/	vid-	.	.	4a\	vid-
=3-	=3-	=3-	=3-	=3-	=3-	=3-	=3-	=3-	=3-
2E-X\	-d'i-	2e-X\	-d'i-	2B-\	-d'i-	2r	.	2g/	-d'i-
!LO:SIC:v:t=custos BB-	!	!	!	!	!	!	!	!	!
!	!	!LO:SIC:v:t=custos d	!	!	!	!	!	!	!
!	!	!	!	!LO:SIC:v:t=custos B-	!	!	!	!	!
!LO:LB:g=original	!	!LO:LB:g=original	!	!LO:LB:g=original	!	!	!	!	!
2BB-/	-o	4d\	-o	4B-\	-o	4r	.	4f/	-o
.	.	2B-\	qui	2d\	qui	2f\	qui	2b-\	qui
1r	.	.	.	.	.	.	.	.	.
.	.	4G/	vid-	4e-X\	vid-	4g\	vid-	4b-\	vid-
!	!	!	!	!	!	!	!	!LO:SIC:v:t=custos b	!
!	!	!	!	!	!	!	!	!LO:LB:g=original	!
.	.	2B-\	-d'i-	2d\	-d'i-	2f\	-d'i-	2b-\	-d'io
!	!	!	!	!	!	!LO:SIC:v:t=custos f	!	!	!
!	!	!	!	!	!	!LO:LB:g=original	!	!	!
=4-	=4-	=4-	=4-	=4-	=4-	=4-	=4-	=4-	=4-
4r	.	2Fny/	-o	4c\	-o	4f\	-o	2a\	/qui
2D/	qui	.	.	2A/	/qui	4d\	qui	.	.
.	.	4D/	/qui	.	.	4f\	vid-	2.a\	vid-
4C#X/	vid-	4E/	vid-	4A/	vid-	4.e\	-d'i-	.	.
2D/	-d'i-	2F/	-d'i-	1A	-d'i-	.	.	.	.
.	.	.	.	.	.	8d\	.	.	.
.	.	.	.	.	.	2d\	.	4a\	-d'i-
2AA/	-o	2E/	-o/	.	.	.	.	2a\	-o
.	.	.	.	.	.	4c#X/	.	.	.
=5-	=5-	=5-	=5-	=5-	=5-	=5-	=5-	=5-	=5-
1r	.	2r	.	1D	-o/	0d	-o	1f#X	.
.	.	2.A/	Quei	.	.	.	.	.	.
2.D/	Quei	.	.	1r	.	.	.	2.f#/	Quei
.	.	4A/	bei	.	.	.	.	.	.
!	!	!LO:N:acc=#	!	!	!	!	!	!	!
.	.	2.Bn\	lu-	.	.	.	.	.	.
4D/	bei	.	.	.	.	.	.	4f#/	bei
=6-	=6-	=6-	=6-	=6-	=6-	=6-	=6-	=6-	=6-
2Eny\	lu-	.	.	1r	.	0r	.	2g/	lu-
.	.	2c\	-mi	.	.	.	.	.	.
2F\	-mi	.	.	.	.	.	.	4a\	-mi
.	.	8d\	lan-	.	.	.	.	4a\	lan-
.	.	8c\	.	.	.	.	.	.	.
!LO:SIC:v:t=custos G	!	!	!	!	!	!	!	!	!
!	!	!LO:SIC:v:t=custos B-	!	!	!	!	!	!	!
!LO:LB:g=original	!	!LO:LB:g=original	!	!	!	!	!	!	!
8G\	lan-	8B-yX\	.	2r	.	.	.	2g/	-guir
8A\	.	8c\	.	.	.	.	.	.	.
8B-\	.	4.d\	.	.	.	.	.	.	.
8G\	.	.	.	.	.	.	.	.	.
!	!	!	!	!	!	!	!	!LO:SIC:v:t=custos e	!
!	!	!	!	!	!	!	!	!LO:LB:g=original	!
2A\	.	.	.	2.A/	Quei	.	.	4e/	Quei
.	.	8c#X\	.	.	.	.	.	.	.
.	.	4c#\	.	.	.	.	.	4e/	bei
=7-	=7-	=7-	=7-	=7-	=7-	=7-	=7-	=7-	=7-
1D	-guir	2d\	-guir	.	.	2.d\	Quei	2f#X/	lu-
!	!	!	!	!	!	!	!	!	!
.	.	.	.	4A/	bei	.	.	.	.
!	!	!	!	!LO:N:acc=#	!	!	!	!	!
!	!	!	!	!LO:SIC:v:t=custos B	!	!	!	!	!
!	!	!	!	!LO:LB:g=original	!	!	!	!	!
.	.	2r	.	2Bn\	lu-	.	.	4f#/	-mi
.	.	.	.	.	.	4d\	bei	4g/	lan-
1r	.	4r	.	2c#X\	-mi	2e\	lu-	1a	-guir
.	.	4A/	la	.	.	.	.	.	.
.	.	4D/	lin-	2d\	lan-	4f#X\	-mi	.	.
.	.	4D/	-gua	.	.	4f#\	lan-	.	.
!	!	!	!	!	!	!LO:SIC:v:t=custos g	!	!	!
!	!	!	!	!	!	!LO:LB:g=original	!	!	!
=8-	=8-	=8-	=8-	=8-	=8-	=8-	=8-	=8-	=8-
4r	.	2G/	ſciol-	4d\	-guir	4g\	-guir	2b-\	la
4G\	la	.	.	4G/	la	4d\	la	.	.
4F#X\	lin-	4D/	-ſe	4A/	lin-	4d\	lin-	4a\	lin-
!	!	!	!	!LO:N:acc=#	!	!	!	!	!
4G\	-gua	4G/	Al	4Bn\	-gua	4d\	-gua	4g/	-gua
2Cny/	ſciol-	2.G/	gri-	2cny\	ſciol-	2e-X\	ſciol-	2.g/	ſciol-
4G\	-ſe	.	.	4B\	-ſe	2.d\	-ſe	.	.
4D/	Al	4d\	-do	4A/	Al	.	.	4fny/	-ſe
=9-	=9-	=9-	=9-	=9-	=9-	=9-	=9-	=9-	=9-
4BB-/	gri-	1d	qui	2B-y\	gri-	.	.	4r	.
4GG/	-do	.	.	.	.	4g\	Al	4dd\	Al
2D/	qui	.	.	2A/	-do	4f#X\	gri-	4dd\	gri-
.	.	.	.	.	.	4f#\	-do	4a\	-do
!	!	!	!	!	!	!	!	!LO:N:acc=#	!
2r	.	1r	.	2G/	qui	2g\	qui	2bn\	qui
2G\	qui	.	.	2d\	qui	2g\	qui	2b\	qui
=10-	=10-	=10-	=10-	=10-	=10-	=10-	=10-	=10-	=10-
2C/	l'em-	0r	.	2.e-X\	l'em-	2.g\	l'em-	2.cc\	l'em-
2G\	-pia	.	.	.	.	.	.	.	.
.	.	.	.	4d\	-pia	4g\	-pia	4b-y\	-pia
!LO:SIC:v:t=custos A	!	!	!	!	!	!	!	!	!
!	!	!	!	!	!	!	!	!LO:SIC:v:t=custos a	!
!LO:LB:g=original	!	!	!	!	!	!	!	!LO:LB:g=original	!
4A\	man	.	.	4c\	man	4fny\	man	4a\	man
4c\	l'ac-	.	.	4c\	l'ac-	4eny\	l'ac-	4g/	l'al-
!	!	!	!	!LO:N:acc=#	!	!	!	!	!
!	!	!	!	!LO:SIC:v:t=custos B	!	!	!	!	!
!	!	!	!	!LO:LB:g=original	!	!	!	!	!
2G\	-col-	.	.	2Bn\	-col-	2d\	-col-	2g/	-col-
=11-	=11-	=11-	=11-	=11-	=11-	=11-	=11-	=11-	=11-
2G\	-ſe	2r	.	2Bny\	-ſe	2d\	-ſe	2g/	-ſe
2.C/	Qui	2.G/	Qui	2.c\	Qui	2.e-X\	Qui	2.g/	Qui
4C/	re-	4G/	re-	4c\	re-	4e-\	re-	4g/	re-
!	!	!LO:SIC:v:t=custos G	!	!	!	!	!	!	!
!	!	!	!	!	!	!LO:SIC:v:t=custos d	!	!	!
!	!	!LO:LB:g=original	!	!	!	!LO:LB:g=original	!	!	!
2GG/	-ſtò	2G/	-ſtò	2B\	-ſtò	2d\	-ſtò	4g/	-ſtò
.	.	.	.	.	.	.	.	2b-\	ſen-
=12-	=12-	=12-	=12-	=12-	=12-	=12-	=12-	=12-	=12-
00r	.	2E-X/	ſen-	2eny\	ſen-	2.g\	ſen-	.	.
.	.	.	.	.	.	.	.	4b-\	-za
.	.	2E-/	-za	2c\	-za	.	.	1cc	ſpir-
.	.	.	.	.	.	4g\	-za	.	.
.	.	2D/	ſpi-	2.d\	ſpir-	2f\	ſpir-	.	.
.	.	2D/	-rto	.	.	2f\	to il	2b-\	to il
.	.	.	.	4d\	to il	.	.	.	.
=13-	=13-	=13-	=13-	=13-	=13-	=13-	=13-	=13-	=13-
.	.	0r	.	4d\	pet-	4f\	pet-	4a\	pet-
.	.	.	.	4B-\	-to	4d\	-to	4g/	-to
.	.	.	.	2A/	mi-	2cny/	mi-	2f#X/	mi-
.	.	.	.	1G	-o	1d	-o	1g	-o
=14-	=14-	=14-	=14-	=14-	=14-	=14-	=14-	=14-	=14-
4r	.	4r	.	2r	.	4r	.	4r	.
!	!	!	!	!	!	!	!	!LO:N:acc=#	!
2GG/	Qui	2d\	Qui	.	.	2g\	Qui	2bn\	Qui
.	.	.	.	4r	.	.	.	.	.
4GG/	le-	4d\	le-	2G/	Qui	4g\	le-	4b\	le-
4C/	-uan-	4e\	-van-	.	.	4g\	-uan-	4cc\	-uan-
4C/	do al	4e\	do al	4G/	lee-	4g\	do al	4cc\	do al
!	!	!	!	!	!	!	!	!LO:SIC:v:t=custos cc	!
!	!	!	!	!	!	!	!	!LO:LB:g=original	!
2Fny\	ciel	4f\	ciel	4A/	-uan-	2c/	ciel	2cc\	ciel
.	.	2F/	gl'oc-	4A/	do al	.	.	.	.
!	!	!	!	!LO:SIC:v:t=custos B-	!	!	!	!	!
!	!	!	!	!LO:LB:g=original	!	!	!	!	!
=15-	=15-	=15-	=15-	=15-	=15-	=15-	=15-	=15-	=15-
2.BB-/	gl'oc-	.	.	4B-\	ciel	2.f\	gl'oc-	2.dd\	gl'oc-
.	.	4D/	-chi	2B-\	gl'oc-	.	.	.	.
.	.	4F/	diſ-	.	.	.	.	.	.
4AA/	-chi	4F/	ſe I	4c\	-chi	4f\	-chi	4cc\	-chi
2BB-/	diſ-	2F/	di-	2d\	diſ-	2f\	diſ-	2b-y\	diſ-
2BB-/	ſe Id-	2F/	-o	2d\	ſe I-	2f\	ſe I-	2b-\	ſe I
=16-	=16-	=16-	=16-	=16-	=16-	=16-	=16-	=16-	=16-
2F\	-di-	0r	.	2c\	-di-	2f\	-di-	2a\	di-
!LO:SIC:v:t=custos F	!	!	!	!	!	!	!	!	!
!	!	!	!	!	!	!LO:SIC:v:t=custos f	!	!	!
!LO:LB:g=original	!	!	!	!	!	!LO:LB:g=original	!	!	!
4F\	-o	.	.	4c\	-o	4f\	-o	4a\	-o
4F\	Ti	.	.	4c\	Ti	4f\	Ti	4a\	Ti
2G\	rac-	.	.	2B-\	rac-	2d\	rac-	2g/	rac-
2F\	-co-	.	.	2c\	-co-	2f\	-co-	2a\	-co-
=17-	=17-	=17-	=17-	=17-	=17-	=17-	=17-	=17-	=17-
4E-X\	-man-	1r	.	4e-X\	-man-	4g\	-man-	4b-\	-man-
4C/	-do	.	.	4e-\	-do	4g\	-do	4cc\	-do
2D/	l'al-	.	.	1d	l'al-	2f#X\	l'al-	2a\	l'al-
4D/	ma e	4r	.	.	.	4f#\	ma e	4a\	ma e
2G\	men-	4B-\	e	.	.	2g\	men-	2b-\	men-
!	!	!LO:SIC:v:t=custos B-	!	!	!	!	!	!	!
!	!	!LO:LB:g=original	!	!	!	!	!	!	!
.	.	4B-\	men-	2d\	-ma	.	.	.	.
4D/	-tre	4d\	-tre	.	.	4f#\	-tre	4a\	-tre
=18-	=18-	=18-	=18-	=18-	=18-	=18-	=18-	=18-	=18-
2.E-X\	vol-	2B-\	vol-	1r	.	2.e-X\	vol-	2.g/	vol-
.	.	2B-\	-ſe	.	.	.	.	.	.
4BB-/	-ſe	.	.	.	.	4d\	-ſe	4fny/	-ſe
1C	dir	4G/	Dir	2r	.	2c/	Dir	1e-X	Dir
.	.	8A\	.	.	.	.	.	.	.
.	.	8B-\	.	.	.	.	.	.	.
.	.	2cny\	.	1g\	l'ac-	2G/	mia	.	.
!	!	!	!	!	!	!	!	!LO:SIC:v:t=custos d	!
!	!	!	!	!	!	!	!	!LO:LB:g=original	!
=19-	=19-	=19-	=19-	=19-	=19-	=19-	=19-	=19-	=19-
2D/	mia	2A/	mia	.	.	1r	.	1d	mia
2D/	l'a-	1d	l'a-	2f\	-cer-	.	.	.	.
1.G	-cer-	.	.	2e-X\	ba e	2r	.	1r	.
.	.	2.c\	-cer-	2e-\	ria	2g\	l'a-	.	.
!	!	!	!	!LO:SIC:v:t=custos d	!	!	!	!	!
!	!	!	!	!LO:LB:g=original	!	!	!	!	!
=20-	=20-	=20-	=20-	=20-	=20-	=20-	=20-	=20-	=20-
.	.	.	.	2d\	mor-	2.g\	-cer-	2r	.
.	.	4B-\	ba e	.	.	.	.	.	.
2G\	ba e	2B-\	ria	1G	-te	.	.	1dd	l'a-
.	.	.	.	.	.	4g\	ba e	.	.
1C	ria	1e-X	mor-	.	.	1g	ria	.	.
.	.	.	.	2G/	gli	.	.	2.cc\	-cer-
!LO:SIC:v:t=custos GG	!	!	!	!	!	!	!	!	!
!	!	!	!	!	!	!LO:SIC:v:t=custos g	!	!	!
!LO:LB:g=original	!	!	!	!	!	!LO:LB:g=original	!	!	!
=21-	=21-	=21-	=21-	=21-	=21-	=21-	=21-	=21-	=21-
1GG	mor-	1.d	-te	1G	tol-	1g	mor-	.	.
.	.	.	.	.	.	.	.	4b-\	ba e
.	.	.	.	.	.	.	.	2b-\	ria
2D/	-te	.	.	1A	-ſe	2fny\	-te	2a\	mor-
2D/	gli	2d\	gli	.	.	2f\	gli	4a\	-te
.	.	.	.	.	.	.	.	4a\	gli
=22-	=22-	=22-	=22-	=22-	=22-	=22-	=22-	=22-	=22-
1E-X	tol-	1B-	tol-	1r	.	1e-X	tol-	1g	tol-
2BB-/	-ſe	1B-	-ſe	2r	.	1d	-ſe	1f	-ſe
2.B-\	con	.	.	2.d\	Con	.	.	.	.
=23-	=23-	=23-	=23-	=23-	=23-	=23-	=23-	=23-	=23-
.	.	1r	.	.	la	1r	.	2.f/	Con
4B-\	la	.	.	4d\	vo-	.	.	.	.
4A\	vo-	.	.	4c\	-ce	.	.	.	.
8A\	-ce	.	.	8c\	la	.	.	4f/	la
8A\	la	.	.	8c\	vi-	.	.	.	.
4G\	vi-	1r	.	4B-\	ta e	2r	.	4e-X/	vo-
4G\	ta e	.	.	4B-\	qui	.	.	8e-/	-ce
.	.	.	.	.	.	.	.	8e-/	la
4F#X\	qui	.	.	4A/	fi-	4r	.	4d/	vi-
4G\	fi-	.	.	4B-\	-ni-	2g\	Con	4d/	-ta
=24-	=24-	=24-	=24-	=24-	=24-	=24-	=24-	=24-	=24-
2E-X\	-ni-	2r	.	8G/	.	.	.	2r	.
.	.	.	.	8A/	.	.	.	.	.
.	.	.	.	8B-\	.	4g\	la	.	.
.	.	.	.	8c\	.	.	.	.	.
!	!	!LO:SIC:v:t=custos B-	!	!	!	!	!	!	!
!	!	!	!	!	!	!	!	!LO:SIC:v:t=custos dd	!
!	!	!LO:LB:g=original	!	!	!	!	!	!LO:LB:g=original	!
2BB-/	-o	2.B-\	Con	4d\	.	4f\	vo-	2.dd\	con
.	.	.	.	4B-\	-o	8f\	-ce	.	.
.	.	.	.	.	.	8f\	la	.	.
1r	.	.	.	4r	.	4f\	vi-	.	.
!	!	!	!	!LO:SIC:v:t=custos G	!	!	!	!	!
!	!	!	!	!LO:LB:g=original	!	!	!	!	!
.	.	4B-\	la	4G/	Con	4d\	ta e	4dd\	la
.	.	4A/	vo-	2c\	la	4eny\	qui	4cc\	vo-
.	.	8A/	-ce	.	.	4f#X\	fi-	8cc\	-ce
.	.	8A/	la	.	.	.	.	8cc\	la
=25-	=25-	=25-	=25-	=25-	=25-	=25-	=25-	=25-	=25-
4r	.	4.G/	vi-	2d\	vo-	2g\	-ni-	1b-	vi-
2G\	Con	.	.	.	.	.	.	.	.
.	.	8A\	.	.	.	.	.	.	.
.	.	4B-\	.	4d\	-ce	2d\	-o	.	.
4G\	la	8A/	.	4B-\	la	.	.	.	.
.	.	8G/	.	.	.	.	.	.	.
!LO:SIC:v:t=custos F	!	!	!	!	!	!	!	!	!
!LO:LB:g=original	!	!	!	!	!	!	!	!	!
4Fny\	vo-	4A/	.	4c\	vi-	4r	.	2a\	ta e
8F\	-ce	4D/	ta e	2d\	ta e	4A/	e	.	.
8F\	la	.	.	.	.	.	.	.	.
!	!	!	!	!	!	!LO:SIC:v:t=custos B-	!	!	!
!	!	!	!	!	!	!LO:LB:g=original	!	!	!
4E-X\	vi-	2G/	qui	.	.	4B-/	qui	2.g/	qui
4E-\	ta e	.	.	4c\	qui	4G/	fi-	.	.
=26-	=26-	=26-	=26-	=26-	=26-	=26-	=26-	=26-	=26-
4D/	qui	2A/	fi-	4r	.	1d	-ni-	.	.
4D/	fi-	.	.	4A/	fi-	.	.	4f#X/	fi-
2GG/	-ni-	2G/	-ni-	2B-\	-ni-	.	.	2g/	-ni-
0.D	-o.	0.F#X	-o.	0.A	-o.	0.d	-o.	0.a	-o.
=27-	=27-	=27-	=27-	=27-	=27-	=27-	=27-	=27-	=27-
.	.	.	.	.	.	.	.	.	.
=-	=-	=-	=-	=-	=-	=-	=-	=-	=-
*-	*-	*-	*-	*-	*-	*-	*-	*-	*-
!!!system-decoration: [(s1,s2,s3,s4,s5)]
!!!ENC: Mateusz Solarz
!!!END: 2022-07-06
!!!ENC: Urszula Świątek
!!!END: 2022-07-28
